docs/icons/d3.svg

<svg width="96" height="91" style="position:relative;top:22px;">
    <clipPath id="clip">
      <path d="M0,0h7.75a45.5,45.5 0 1 1 0,91h-7.75v-20h7.75a25.5,25.5 0 1 0 0,-51h-7.75zm36.2510,0h32a27.75,27.75 0 0 1 21.331,45.5a27.75,27.75 0 0 1 -21.331,45.5h-32a53.6895,53.6895 0 0 0 18.7464,-20h13.2526a7.75,7.75 0 1 0 0,-15.5h-7.75a53.6895,53.6895 0 0 0 0,-20h7.75a7.75,7.75 0 1 0 0,-15.5h-13.2526a53.6895,53.6895 0 0 0 -18.7464,-20z"></path>
    </clipPath>
    <linearGradient id="gradient-1" gradientUnits="userSpaceOnUse" x1="7" y1="64" x2="50" y2="107">
      <stop offset="0" stop-color="#f9a03c"></stop>
      <stop offset="1" stop-color="#f7974e"></stop>
    </linearGradient>
    <linearGradient id="gradient-2" gradientUnits="userSpaceOnUse" x1="2" y1="-2" x2="87" y2="84">
      <stop offset="0" stop-color="#f26d58"></stop>
      <stop offset="1" stop-color="#f9a03c"></stop>
    </linearGradient>
    <linearGradient id="gradient-3" gradientUnits="userSpaceOnUse" x1="45" y1="-10" x2="108" y2="53">
      <stop offset="0" stop-color="#b84e51"></stop>
      <stop offset="1" stop-color="#f68e48"></stop>
    </linearGradient>
    <g clip-path="url(#clip)">
      <path d="M-100,-102m-27,0v300h300z" fill="url(#gradient-1)"></path>
      <path d="M-100,-102m27,0h300v300z" fill="url(#gradient-3)"></path>
      <path d="M-100,-102l300,300" fill="none" stroke="url(#gradient-2)" stroke-width="40"></path>
    </g>
  </svg>

<svg xmlns="http://www.w3.org/2000/svg" width="96" height="91" xmlns:v="https://vecta.io/nano"><clipPath id="A"><path d="M0 0h7.75a45.5 45.5 0 1 1 0 91H0V71h7.75a25.5 25.5 0 1 0 0-51H0zm36.251 0h32a27.75 27.75 0 0 1 21.331 45.5A27.75 27.75 0 0 1 68.251 91h-32a53.69 53.69 0 0 0 18.746-20H68.25a7.75 7.75 0 1 0 0-15.5H60.5a53.69 53.69 0 0 0 0-20h7.75a7.75 7.75 0 1 0 0-15.5H54.997A53.69 53.69 0 0 0 36.251 0z"/></clipPath><linearGradient id="B" gradientUnits="userSpaceOnUse" x1="7" y1="64" x2="50" y2="107"><stop offset="0" stop-color="#f9a03c"/><stop offset="1" stop-color="#f7974e"/></linearGradient><linearGradient id="C" gradientUnits="userSpaceOnUse" x1="2" y1="-2" x2="87" y2="84"><stop offset="0" stop-color="#f26d58"/><stop offset="1" stop-color="#f9a03c"/></linearGradient><linearGradient id="D" gradientUnits="userSpaceOnUse" x1="45" y1="-10" x2="108" y2="53"><stop offset="0" stop-color="#b84e51"/><stop offset="1" stop-color="#f68e48"/></linearGradient><g clip-path="url(#A)"><path d="M-127-102v300h300z" fill="url(#B)"/><path d="M-73-102h300v300z" fill="url(#D)"/><path d="M-100,-102l300,300" fill="none" stroke="url(#C)" stroke-width="40"/></g></svg>
